!!!OTL: DER STRAUSS DEN ICH GEPFLUECKET
!!!ARE: Europa, Mitteleuropa, Deutschland
!!!SCT: F0880
!!!YEM: Copyright 1995, estate of Helmut Schaffrath.
**kern
*ICvox
*Ivox
*M2/4
*k[]
*C:
{8G
=1
8E
8G
8c
8d
=2
4e
8d
8r}
=3
{8.e
16d
8c
8A
=4
8.G
16E
8C}
{8G
=5
8E
8G
8c
8d
=6
4e
8d}
{8c
=7
8B
8c
8B
8G
=8
4E
8r}
{8G
=9
8A
8B
8c
8d
=10
8e
8g
8g}
{8f
=11
8e
8d
8A
8B
=12
4.c}
{8G
=13
8G
8A
8G
8E
=14
4.C}
==
!!!AGN: Liebes - Lied
!!!ONB: ESAC (Essen Associative Code) Database: FINK
!!!AMT: simple duple
!!!AIN: vox
!!!EED: Helmut Schaffrath
!!!EEV: 1.0
*-
